X:2
T:Campbell's Farewell to Redcastle
T: March
M:2/4
L:1/8
R: march
K:AMix
%
[V:1]ue | A>B cd | ea e>d | cA A(B/c/) | d>B =GB |
[V:2 clef=alto] z | [EA,]4 | [EA,]4 | [EA,]4 | [DG,]4 |
%
[V:1]A>B cd | ea e>d | c(B/A/) =GB | A2 [AA] :|
[V:2][EA,]4 | [EA,]4 | [EA,]2 GF & x2 G,2 | [EA,]3 :|
%
[V:1](=g3/4f1/4) | ea a(=g/f/) | ea e>d | cA A(B/c/) | d>B =G(g/f/) |
[V:2]z | [EA,]2 [DD]2 | [EA,]4 | E3F & A,4 | G2D2 & G,4 |
%
[V:1] ea a(=g/f/) | ea ed | c(B/A/) =GB | A2 [AA] (=g3/4f1/4) |
[V:2] [EA,]2 [DD]2 | [EA,]4 | E>F GF & A,2 G,2 | [EA,]4 |
%
[V:1]vea a(=g/f/) | ea e>d | cA A(B/c/) | d>B =GB |
[V:2] [EA,]2 [DD]2 | [EA,]4 | E3F & A,4 | G2D2 & G,4 |
%
[V:1](A/B/c/d/) (c/d/e/f/) | (e/f/^g/a/) (e>d) | vc(B/A/) =GB | A2 A ||
[V:2] A,>B, C>D | E2 A,2 | E>F G2 & A,2 G,2 | [EA,]3 ||
%
%second strain
%
[V:1]|: ue | A>B cd | ea e>d | cA A(B/c/) | d>B =GB |
[V:2] |: z | z E A,>B,| CD EA| E>D CA, | =G,(B,/C/) D>G, |
%
[V:1]A>B cd | ea e>d | c(B/A/) =GB | A2 [AA] :|
[V:2]A,E A,>B, | CD EA | E(D/C/) B,=G, | [EA,]2 [EA,] :|
%
[V:1](=g3/4f1/4) | ea a(=g/f/) | ea e>d | cA A(B/c/) | d>B =G(g/f/) |
[V:2](E/>D/) | CA, F(E/D/) | CA, C>D | ED CA, | =G,(B,/C/) D(E/D/) |
%
[V:1] ea a(=g/f/) | ea ed | c(B/A/) =GB | A2 [AA] (=g3/4f1/4) |
[V:2] CA, F(E/D/) | CA, C>D | E(D/C/) B,=G, | [EA,]2 [EA,] (=E/>D/)
%
[V:1]vea a(=g/f/) | ea e>d | cA A(B/c/) | d>B =GB |
[V:2]CA, F(E/D/) | CA, C>D | ED CB,/A,/ | =G,/A,/B,/C/ D(E/D/), |
%
[V:1](A/B/c/d/) (c/d/e/f/) | (e/f/^g/a/) (e>d) | vc(B/A/) =GB | A2 !fermata![AE] |]
[V:2] (C/D/E/F/) (E/F/^G/A/) | (=G/F/E/D/) (C>D) | E(D/C/) B,=G, | [EA,]2 !invertedfermata![EA,] |]